src/icons/circle-cross.svg

<svg viewBox="0 0 13 13"  xmlns="http://www.w3.org/2000/svg">
<path fill-rule="evenodd" clip-rule="evenodd" d="M0.166687 6.5013C0.166687 9.99911 3.00222 12.8346 6.50002 12.8346C9.99782 12.8346 12.8334 9.99911 12.8334 6.5013C12.8334 3.0035 9.99782 0.167969 6.50002 0.167969C3.00222 0.167969 0.166687 3.0035 0.166687 6.5013ZM4.23841 3.498L6.49799 5.76096L8.76198 3.49767C9.25705 3.00275 9.99831 3.74646 9.50325 4.24137L7.23992 6.504L9.49411 8.76157C9.98873 9.25693 9.2468 9.99996 8.75218 9.5046L6.49732 7.24638L4.23807 9.50494C3.74301 9.99985 3.00174 9.25615 3.49681 8.76123L5.75539 6.50334L3.49648 4.24104C3.00186 3.74568 3.74379 3.00264 4.23841 3.498Z" />
</svg>

<svg viewBox="0 0 13 13" xmlns="http://www.w3.org/2000/svg"><path fill-rule="evenodd" clip-rule="evenodd" d="M.167 6.501a6.333 6.333 0 1012.666 0 6.333 6.333 0 00-12.666 0zm4.071-3.003l2.26 2.263 2.264-2.263c.495-.495 1.236.248.741.743L7.24 6.504l2.254 2.258c.495.495-.247 1.238-.742.743L6.497 7.246 4.238 9.505c-.495.495-1.236-.249-.741-.744l2.258-2.258-2.259-2.262c-.494-.495.248-1.238.742-.743z"/></svg>
